X: 1
T: Blue Idol, The
M: 6/8
L: 1/8
R: jig
K: Ador
|:ag|e2A AGA|gab age|d2B BAB|g2e fag|
e2A AGA|gab age|dBB gBB|ABA A:|
ga|b2a age|gab age|d2B BAB|g2e fga|
b2a age|gab age|dBB gBB|ABA Aga|
b2a age|gab age|d2B BAB|g2e fag|
e2A AGA|gab age|dBB gBB|ABA A||
